pieces/chess7/rw.svg

<svg height="68" width="68" xmlns="http://www.w3.org/2000/svg"><path d="M48.464 25.008l2.432 19.52 2.624 6.016v12.928H14.16V50.544l2.624-6.016 2.432-19.52-4.928-10.752 3.072-9.728H26v8.32h3.712v-8.32h8.768v8.32h3.648v-8.32h8.64l3.072 9.728zm-31.552 27.2v8.64h33.984v-8.64zm.768-2.752H50l-1.408-3.392H19.088zm17.856-19.52l4.16 4.16h7.232l-.96-7.872h-24l-1.024 7.872h6.912l4.416-4.16q1.408-1.792 3.264 0zm-7.36 6.912h-7.552l-.96 6.784h28.352l-.768-6.784h-7.744l-3.968 3.968q-1.856 1.856-3.264 0zM17.04 14.064l4.672 9.536h24.576l4.8-9.536-2.176-6.912h-4.16V15.6h-8.896V7.152h-3.584V15.6h-8.896V7.152h-4.032zm13.248 21.248l3.52 3.712 3.712-3.712-3.712-3.52z"/><g fill="#fff" fill-rule="evenodd"><path d="M17.036 56.6v-4.273h33.818v8.546H17.036zm1.117-8.136l.662-1.637.276-.682 14.745.001h14.745l.67 1.636.67 1.636H17.769zm1.61-5.029c0-.09.205-1.571.455-3.29.25-1.718.454-3.158.454-3.198 0-.041 1.689-.074 3.753-.074h3.752l2.495 2.454c2.655 2.612 2.91 2.753 3.964 2.195.27-.143 1.471-1.248 2.67-2.455l2.179-2.194h3.866c2.972 0 3.867.052 3.868.227 0 .125.164 1.577.362 3.227s.362 3.062.363 3.137c0 .075-6.34.136-14.09.136-8.311 0-14.09-.068-14.09-.165z"/><path d="M32.002 37.076l-1.67-1.779 1.71-1.703 1.71-1.704.506.44a73.023 73.023 0 0 1 1.824 1.715L37.4 35.32l-1.77 1.777c-.974.977-1.813 1.773-1.864 1.768-.052-.005-.847-.81-1.765-1.788z"/><path d="M21.096 33.373a185.6 185.6 0 0 0 .505-3.819l.404-3.227h11.97c6.583 0 11.97.047 11.97.105 0 .2.727 6.172.834 6.85l.107.682h-7.22l-1.906-1.929c-2.384-2.413-3.136-2.98-3.944-2.98-.664 0-.936.217-4.257 3.404l-1.567 1.505h-6.997zm-1.671-14.546L17.1 14.054l1.12-3.363 1.12-3.364 2.03-.051 2.03-.052V15.6h8.908V7.236h3.454V15.6h9.092V7.224l2.026.052 2.026.051 1.052 3.343 1.052 3.343-2.394 4.793L46.22 23.6H21.75l-2.325-4.773z"/></g></svg>

<svg width="68" height="68" viewBox="0 0 68 68" fill="none" xmlns="http://www.w3.org/2000/svg">
<path d="M48.464 25.008L50.896 44.528L53.52 50.544V63.472H14.16V50.544L16.784 44.528L19.216 25.008L14.288 14.256L17.36 4.528H26V12.848H29.712V4.528H38.48V12.848H42.128V4.528H50.768L53.84 14.256L48.464 25.008Z" fill="black"/>
<path fill-rule="evenodd" clip-rule="evenodd" d="M17.036 56.6V52.327H50.854V60.873H17.036V56.6ZM18.153 48.464L18.815 46.827L19.091 46.145L33.836 46.146H48.581L49.251 47.782L49.921 49.418H17.769L18.153 48.464ZM19.763 43.435C19.763 43.345 19.968 41.864 20.218 40.145C20.468 38.427 20.672 36.987 20.672 36.947C20.672 36.906 22.361 36.873 24.425 36.873H28.177L30.672 39.327C33.327 41.939 33.582 42.08 34.636 41.522C34.906 41.379 36.107 40.274 37.306 39.067L39.485 36.873H43.351C46.323 36.873 47.218 36.925 47.219 37.1C47.219 37.225 47.383 38.677 47.581 40.327C47.779 41.977 47.943 43.389 47.944 43.464C47.944 43.539 41.604 43.6 33.854 43.6C25.543 43.6 19.764 43.532 19.764 43.435H19.763Z" fill="white"/>
<path fill-rule="evenodd" clip-rule="evenodd" d="M32.002 37.076L30.332 35.297L32.042 33.594L33.752 31.89L34.258 32.33C34.8758 32.8912 35.4838 33.4629 36.082 34.045L37.4 35.32L35.63 37.097C34.656 38.074 33.817 38.87 33.766 38.865C33.714 38.86 32.919 38.055 32.001 37.077L32.002 37.076Z" fill="white"/>
<path fill-rule="evenodd" clip-rule="evenodd" d="M21.096 33.373C21.2775 32.1018 21.4459 30.8287 21.601 29.554L22.005 26.327H33.975C40.558 26.327 45.945 26.374 45.945 26.432C45.945 26.632 46.672 32.604 46.779 33.282L46.886 33.964H39.666L37.76 32.035C35.376 29.622 34.624 29.055 33.816 29.055C33.152 29.055 32.88 29.272 29.559 32.459L27.992 33.964H20.995L21.096 33.373ZM19.425 18.827L17.1 14.054L18.22 10.691L19.34 7.327L21.37 7.276L23.4 7.224V15.6H32.308V7.236H35.762V15.6H44.854V7.224L46.88 7.276L48.906 7.327L49.958 10.67L51.01 14.013L48.616 18.806L46.22 23.6H21.75L19.425 18.827V18.827Z" fill="white"/>
</svg>
